X:1
T:Title
%%score { ( 1 4 ) | ( 2 3 ) }
L:1/8
M:9/8
K:G
V:1 treble nm="Grand Piano"
V:4 treble 
V:2 treble 
V:3 treble 
V:1
 z3 z3[Q:1/4=117] G2 A | B3- B2 B c2 c | B2 A G3 B2 c | d3- d2 d [Fc]2 [Fc] |[M:3/4] B6 | %5
[M:3/8] G2 A |[M:9/8] B3- B2 B c2 c | B2 A [B,G]3 [CGA]2 [DGB] | %8
 [EGc]3- [EGc]2 [EGc] [DGB]2 [CDA] |[M:3/4] [B,DG]6 |[M:12/8] z3 c6- c2 z | z3 B6 z3 | %12
 z3 d6- d2 z | z3 B3- B6 | z3 c6- c2 z | z3 B6 z3 | %16
 z3 d6- d2 z[Q:1/4=113][Q:1/4=110][Q:1/4=106][Q:1/4=102][Q:1/4=99][Q:1/4=95][Q:1/4=91] | %17
[M:9/8] z3 G6- | G3 z3 z3 |] %19
V:2
 z3 z3 [G,B,]2 [G,CG] | [G,DG]3- [G,DG]2 [G,DG] [G,EG]2 [G,EG] | [G,G]3 z3 z3 | %3
 [G,B,G]3- [G,B,G]2 [G,B,G][K:bass] [D,A,]2 [D,D] |[M:3/4][K:treble] [G,DG]6 | %5
[M:3/8] [G,B,]2 [G,CG] |[M:9/8] [G,DG]3- [G,DG]2 [G,DG] [G,EG]2 [G,EG] | [G,G]3[K:bass] z3 z3 | %8
 C,3- C,2 C, D,2 D, |[M:3/4] G,6 |[M:12/8][K:treble] z3 E6[K:bass][K:treble] z3 | %11
 z3 D6[K:bass] z3 | z3 F6- F2[K:treble] z | z3 G3- G6 | z3 E6[K:bass][K:treble] z3 | %15
 z3 D6[K:bass] z3 | D2[K:treble] G F3[K:bass] [D,A,]2 [D,B,] [D,C]2 [D,D] |[M:9/8] z3 .[B,D]3 z3 | %18
 z9 |] %19
V:3
 x9 | x9 | D2 C [G,B,]3 [G,G]2 [G,A,G] | x6[K:bass] x3 |[M:3/4][K:treble] x6 |[M:3/8] x3 | %6
[M:9/8] x9 | D2 C[K:bass] G,3 G,2 G, | x9 |[M:3/4] x6 | %10
[M:12/8][K:treble] GF=F z2[K:bass] C, E,2 G,[K:treble] C2 G | %11
 F2 E z2[K:bass] G,, B,,2 D, [G,B,D]3 | D2 G z2 D, D,2 D, D,2[K:treble] F | G2 A z3 G,2 G, G,3 | %14
 z F=F z2[K:bass] C, E,2 G,[K:treble] C2 G | F2 E z2[K:bass] G,, B,,2 D, [G,B,D]3 | %16
 x2[K:treble] x4[K:bass] x6 |[M:9/8] [D,D]2 [D,D] G,2- [G,-B,] [G,-C]2 [G,-C] | [G,B,]3 z3 z3 |] %19
V:4
 x9 | x9 | x9 | x9 |[M:3/4] x6 |[M:3/8] x3 |[M:9/8] x9 | x9 | x9 |[M:3/4] x6 | %10
[M:12/8] z AB z2 G, C2 E E2 e | d2 c z2 G, G,2 B, G3 | B2 B z2 A, A,2 A, A,2 A | %13
 B2 c z2 G, B,2 D D3 | GAB z2 G, C2 E E2 e | d2 c z2 G, G,2 B, G3 | B2 B z3 F2 G A2 [Ac] | %17
[M:9/8] [GB]2 A z2 D E2 E | D3 z3 z3 |] %19

